; generated by PrusaSlicer 2.9.2 on 2025-11-02 at 22:51:31 UTC

; 

; external perimeters extrusion width = 0.42mm
; perimeters extrusion width = 0.44mm
; infill extrusion width = 0.44mm
; solid infill extrusion width = 0.44mm
; top infill extrusion width = 0.40mm
; first layer extrusion width = 0.42mm

M201 X500 Y500 Z100 E5000 ; sets maximum accelerations, mm/sec^2
M203 X500 Y500 Z10 E60 ; sets maximum feedrates, mm / sec
M204 S500 T1000 ; sets acceleration (S) and retract acceleration (R), mm/sec^2
M205 X8.00 Y8.00 Z0.40 E5.00 ; sets the jerk limits, mm/sec
M205 S0 T0 ; sets the minimum extruding and travel feed rate, mm/sec

; printing object square.stl id:0 copy 0
; stop printing object square.stl id:0 copy 0

;TYPE:Custom
G90 ; use absolute coordinates
M83 ; extruder relative mode
M104 S150 ; set temporary nozzle temp to prevent oozing during homing
M140 S60 ; set final bed temp
G4 S30 ; allow partial nozzle warmup
G28 ; home all axis and restore leveling
G1 Z50 F240
G1 X2.0 Y10 F3000
M104 S210 ; set final nozzle temp
M190 S60 ; wait for bed temp to stabilize
M109 S210 ; wait for nozzle temp to stabilize
G1 Z0.28 F240
G92 E0
G1 X2.0 Y140 E10 F1500 ; prime the nozzle
G1 X2.3 Y140 F5000
G92 E0
G1 X2.3 Y10 E10 F1200 ; prime the nozzle
G92 E0
G21 ; set units to millimeters
G90 ; use absolute coordinates
M83 ; use relative distances for extrusion
; Filament gcode
M107
;LAYER_CHANGE
;Z:0.2
;HEIGHT:0.2
G1 E-.8 F1800
G1 Z.2 F9000
G1 X128.289 Y127.309
G1 Z.2
G1 E.8 F1800
M204 S500
;TYPE:Skirt/Brim
;WIDTH:0.42
G1 F1108
G1 X130 Y126.811 E.05587
G1 X170 Y126.811 E1.25417
G1 X171.535 Y127.205 E.04969
G1 X172.691 Y128.289 E.04969
G1 X173.189 Y130 E.05587
G1 X173.189 Y170 E1.25417
G1 X172.795 Y171.535 E.04969
G1 X171.711 Y172.691 E.04969
G1 X170 Y173.189 E.05587
G1 X130 Y173.189 E1.25417
G1 X128.465 Y172.795 E.04969
G1 X127.309 Y171.711 E.04969
G1 X126.811 Y170 E.05587
G1 X126.811 Y130 E1.25417
G1 X127.205 Y128.465 E.04969
G1 X128.248 Y127.353 E.0478
;WIPE_START
G1 F7200
G1 X128.289 Y127.309 E-.01428
G1 X130 Y126.811 E-.42323
G1 X131.526 Y126.811 E-.36249
;WIPE_END
; printing object square.stl id:0 copy 0
G1 X130.289 Y130.289 F9000
G1 E.8 F1800
;TYPE:External perimeter
;WIDTH:0.578422
G1 F1108
G1 X130.384 Y130.27 E.00431
;WIDTH:0.539211
G1 X130.479 Y130.25 E.00401
;WIDTH:0.5
G1 X169.521 Y130.25 E1.48384
;WIDTH:0.539211
G1 X169.616 Y130.27 E.00401
;WIDTH:0.578422
G1 X169.711 Y130.289 E.00431
G1 X169.73 Y130.384 E.00431
;WIDTH:0.539211
G1 X169.75 Y130.479 E.00401
;WIDTH:0.5
G1 X169.75 Y169.521 E1.48384
;WIDTH:0.539211
G1 X169.73 Y169.616 E.00401
;WIDTH:0.578422
G1 X169.711 Y169.711 E.00431
G1 X169.616 Y169.73 E.00431
;WIDTH:0.539211
G1 X169.521 Y169.75 E.00401
;WIDTH:0.5
G1 X130.479 Y169.75 E1.48384
;WIDTH:0.539211
G1 X130.384 Y169.73 E.00401
;WIDTH:0.578422
G1 X130.289 Y169.711 E.00431
G1 X130.27 Y169.616 E.00431
;WIDTH:0.539211
G1 X130.25 Y169.521 E.00401
;WIDTH:0.5
G1 X130.25 Y130.479 E1.48384
;WIDTH:0.539211
G1 X130.27 Y130.384 E.00401
;WIDTH:0.578422
G1 X130.277 Y130.348 E.00163
M106 S255
;LAYER_CHANGE
;Z:0.44
;HEIGHT:0.24
;BEFORE_LAYER_CHANGE
G92 E0
;0.44


;WIPE_START
G1 F7200
G1 X130.289 Y130.289 E-.0143
G1 X130.384 Y130.27 E-.02301
G1 X130.479 Y130.25 E-.02306
G1 X133.593 Y130.25 E-.73963
;WIPE_END
G1 Z.44 F9000
;AFTER_LAYER_CHANGE
;0.44
M104 S205 ; set temperature
; stop printing object square.stl id:0 copy 0
G1 Z.44
G1 X126.942 Y129.492
G1 E.8 F1800
;TYPE:Skirt/Brim
;WIDTH:0.42
G1 F1047
G1 X127.205 Y128.465 E.03898
G1 X128.289 Y127.309 E.05827
G1 X130 Y126.811 E.06552
G1 X170 Y126.811 E1.47075
G1 X171.535 Y127.205 E.05827
G1 X172.691 Y128.289 E.05827
G1 X173.189 Y130 E.06552
G1 X173.189 Y170 E1.47075
G1 X172.795 Y171.535 E.05827
G1 X171.711 Y172.691 E.05827
G1 X170 Y173.189 E.06552
G1 X130 Y173.189 E1.47075
G1 X128.465 Y172.795 E.05827
G1 X127.309 Y171.711 E.05827
G1 X126.811 Y170 E.06552
G1 X126.811 Y130 E1.47075
G1 X126.927 Y129.55 E.01709
;WIPE_START
G1 F7200
G1 X126.942 Y129.492 E-.01423
G1 X127.205 Y128.465 E-.25178
G1 X128.289 Y127.309 E-.37638
G1 X128.926 Y127.124 E-.15761
;WIPE_END
; printing object square.stl id:0 copy 0
G1 X130.288 Y130.288 F9000
G1 E.8 F1800
;TYPE:External perimeter
;WIDTH:0.576948
G1 F1047
G1 X130.381 Y130.269 E.00498
;WIDTH:0.538474
G1 X130.474 Y130.25 E.00461
;WIDTH:0.5
G1 X169.526 Y130.25 E1.74762
;WIDTH:0.538475
G1 X169.619 Y130.269 E.00461
;WIDTH:0.57695
G1 X169.712 Y130.288 E.00498
G1 X169.731 Y130.381 E.00498
;WIDTH:0.538475
G1 X169.75 Y130.474 E.00461
;WIDTH:0.5
G1 X169.75 Y169.526 E1.74762
;WIDTH:0.538475
G1 X169.731 Y169.619 E.00461
;WIDTH:0.57695
G1 X169.712 Y169.712 E.00498
G1 X169.619 Y169.731 E.00498
;WIDTH:0.538475
G1 X169.526 Y169.75 E.00461
;WIDTH:0.5
G1 X130.474 Y169.75 E1.74762
;WIDTH:0.538474
G1 X130.381 Y169.731 E.00461
;WIDTH:0.576948
G1 X130.288 Y169.712 E.00498
G1 X130.269 Y169.619 E.00498
;WIDTH:0.538474
G1 X130.25 Y169.526 E.00461
;WIDTH:0.5
G1 X130.25 Y130.474 E1.74762
;WIDTH:0.538474
G1 X130.269 Y130.381 E.00461
;WIDTH:0.576948
G1 X130.276 Y130.347 E.00182
;LAYER_CHANGE
;Z:0.68
;HEIGHT:0.24
;BEFORE_LAYER_CHANGE
G92 E0
;0.68


;WIPE_START
G1 F7200
G1 X130.288 Y130.288 E-.0143
G1 X130.381 Y130.269 E-.02254
G1 X130.474 Y130.25 E-.02254
G1 X133.592 Y130.25 E-.74062
;WIPE_END
G1 Z.68 F9000
;AFTER_LAYER_CHANGE
;0.68
G1 Z.68
G1 X130.288 Y130.288
G1 E.8 F1800
G1 F900
G1 X130.381 Y130.269 E.00498
;WIDTH:0.538474
G1 X130.474 Y130.25 E.00461
;WIDTH:0.5
G1 X169.526 Y130.25 E1.74762
;WIDTH:0.538475
G1 X169.619 Y130.269 E.00461
;WIDTH:0.57695
G1 X169.712 Y130.288 E.00498
G1 X169.731 Y130.381 E.00498
;WIDTH:0.538475
G1 X169.75 Y130.474 E.00461
;WIDTH:0.5
G1 X169.75 Y169.526 E1.74762
;WIDTH:0.538475
G1 X169.731 Y169.619 E.00461
;WIDTH:0.57695
G1 X169.712 Y169.712 E.00498
G1 X169.619 Y169.731 E.00498
;WIDTH:0.538475
G1 X169.526 Y169.75 E.00461
;WIDTH:0.5
G1 X130.474 Y169.75 E1.74762
;WIDTH:0.538474
G1 X130.381 Y169.731 E.00461
;WIDTH:0.576948
G1 X130.288 Y169.712 E.00498
G1 X130.269 Y169.619 E.00498
;WIDTH:0.538474
G1 X130.25 Y169.526 E.00461
;WIDTH:0.5
G1 X130.25 Y130.474 E1.74762
;WIDTH:0.538474
G1 X130.269 Y130.381 E.00461
;WIDTH:0.576948
G1 X130.276 Y130.347 E.00182
;LAYER_CHANGE
;Z:0.92
;HEIGHT:0.24
;BEFORE_LAYER_CHANGE
G92 E0
;0.92


;WIPE_START
G1 F7200
G1 X130.288 Y130.288 E-.0143
G1 X130.381 Y130.269 E-.02254
G1 X130.474 Y130.25 E-.02254
G1 X133.592 Y130.25 E-.74062
;WIPE_END
G1 Z.92 F9000
;AFTER_LAYER_CHANGE
;0.92
G1 Z.92
G1 X130.288 Y130.288
G1 E.8 F1800
G1 F900
G1 X130.381 Y130.269 E.00498
;WIDTH:0.538474
G1 X130.474 Y130.25 E.00461
;WIDTH:0.5
G1 X169.526 Y130.25 E1.74762
;WIDTH:0.538475
G1 X169.619 Y130.269 E.00461
;WIDTH:0.57695
G1 X169.712 Y130.288 E.00498
G1 X169.731 Y130.381 E.00498
;WIDTH:0.538475
G1 X169.75 Y130.474 E.00461
;WIDTH:0.5
G1 X169.75 Y169.526 E1.74762
;WIDTH:0.538475
G1 X169.731 Y169.619 E.00461
;WIDTH:0.57695
G1 X169.712 Y169.712 E.00498
G1 X169.619 Y169.731 E.00498
;WIDTH:0.538475
G1 X169.526 Y169.75 E.00461
;WIDTH:0.5
G1 X130.474 Y169.75 E1.74762
;WIDTH:0.538474
G1 X130.381 Y169.731 E.00461
;WIDTH:0.576948
G1 X130.288 Y169.712 E.00498
G1 X130.269 Y169.619 E.00498
;WIDTH:0.538474
G1 X130.25 Y169.526 E.00461
;WIDTH:0.5
G1 X130.25 Y130.474 E1.74762
;WIDTH:0.538474
G1 X130.269 Y130.381 E.00461
;WIDTH:0.576948
G1 X130.276 Y130.347 E.00182
;LAYER_CHANGE
;Z:1.16
;HEIGHT:0.24
;BEFORE_LAYER_CHANGE
G92 E0
;1.16


;WIPE_START
G1 F7200
G1 X130.288 Y130.288 E-.0143
G1 X130.381 Y130.269 E-.02254
G1 X130.474 Y130.25 E-.02254
G1 X133.592 Y130.25 E-.74062
;WIPE_END
G1 Z1.16 F9000
;AFTER_LAYER_CHANGE
;1.16
G1 Z1.16
G1 X130.288 Y130.288
G1 E.8 F1800
G1 F900
G1 X130.381 Y130.269 E.00498
;WIDTH:0.538474
G1 X130.474 Y130.25 E.00461
;WIDTH:0.5
G1 X169.526 Y130.25 E1.74762
;WIDTH:0.538475
G1 X169.619 Y130.269 E.00461
;WIDTH:0.57695
G1 X169.712 Y130.288 E.00498
G1 X169.731 Y130.381 E.00498
;WIDTH:0.538475
G1 X169.75 Y130.474 E.00461
;WIDTH:0.5
G1 X169.75 Y169.526 E1.74762
;WIDTH:0.538475
G1 X169.731 Y169.619 E.00461
;WIDTH:0.57695
G1 X169.712 Y169.712 E.00498
G1 X169.619 Y169.731 E.00498
;WIDTH:0.538475
G1 X169.526 Y169.75 E.00461
;WIDTH:0.5
G1 X130.474 Y169.75 E1.74762
;WIDTH:0.538474
G1 X130.381 Y169.731 E.00461
;WIDTH:0.576948
G1 X130.288 Y169.712 E.00498
G1 X130.269 Y169.619 E.00498
;WIDTH:0.538474
G1 X130.25 Y169.526 E.00461
;WIDTH:0.5
G1 X130.25 Y130.474 E1.74762
;WIDTH:0.538474
G1 X130.269 Y130.381 E.00461
;WIDTH:0.576948
G1 X130.276 Y130.347 E.00182
;LAYER_CHANGE
;Z:1.4
;HEIGHT:0.24
;BEFORE_LAYER_CHANGE
G92 E0
;1.4


;WIPE_START
G1 F7200
G1 X130.288 Y130.288 E-.0143
G1 X130.381 Y130.269 E-.02254
G1 X130.474 Y130.25 E-.02254
G1 X133.592 Y130.25 E-.74062
;WIPE_END
G1 Z1.4 F9000
;AFTER_LAYER_CHANGE
;1.4
G1 Z1.4
G1 X130.288 Y130.288
G1 E.8 F1800
G1 F900
G1 X130.381 Y130.269 E.00498
;WIDTH:0.538474
G1 X130.474 Y130.25 E.00461
;WIDTH:0.5
G1 X169.526 Y130.25 E1.74762
;WIDTH:0.538475
G1 X169.619 Y130.269 E.00461
;WIDTH:0.57695
G1 X169.712 Y130.288 E.00498
G1 X169.731 Y130.381 E.00498
;WIDTH:0.538475
G1 X169.75 Y130.474 E.00461
;WIDTH:0.5
G1 X169.75 Y169.526 E1.74762
;WIDTH:0.538475
G1 X169.731 Y169.619 E.00461
;WIDTH:0.57695
G1 X169.712 Y169.712 E.00498
G1 X169.619 Y169.731 E.00498
;WIDTH:0.538475
G1 X169.526 Y169.75 E.00461
;WIDTH:0.5
G1 X130.474 Y169.75 E1.74762
;WIDTH:0.538474
G1 X130.381 Y169.731 E.00461
;WIDTH:0.576948
G1 X130.288 Y169.712 E.00498
G1 X130.269 Y169.619 E.00498
;WIDTH:0.538474
G1 X130.25 Y169.526 E.00461
;WIDTH:0.5
G1 X130.25 Y130.474 E1.74762
;WIDTH:0.538474
G1 X130.269 Y130.381 E.00461
;WIDTH:0.576948
G1 X130.276 Y130.347 E.00182
;LAYER_CHANGE
;Z:1.64
;HEIGHT:0.24
;BEFORE_LAYER_CHANGE
G92 E0
;1.64


;WIPE_START
G1 F7200
G1 X130.288 Y130.288 E-.0143
G1 X130.381 Y130.269 E-.02254
G1 X130.474 Y130.25 E-.02254
G1 X133.592 Y130.25 E-.74062
;WIPE_END
G1 Z1.64 F9000
;AFTER_LAYER_CHANGE
;1.64
G1 Z1.64
G1 X130.977 Y130.977
G1 E.8 F1800
;TYPE:Perimeter
;WIDTH:0.439999
G1 F3600
G1 X169.023 Y130.977 E1.47482
G1 X169.023 Y150 E.73741
G1 X169.023 Y169.023 E.73741
G1 X130.977 Y169.023 E1.47482
G1 X130.977 Y131.037 E1.4725
G1 X130.588 Y130.588 F9000
G1 F3600
G1 X169.412 Y130.588 E1.50498
G1 X169.412 Y150 E.75249
G1 X169.412 Y169.412 E.75249
G1 X130.588 Y169.412 E1.50498
G1 X130.588 Y130.648 E1.50265
G1 X130.21 Y130.21 F9000
;TYPE:External perimeter
;WIDTH:0.419999
G1 F1800
G1 X169.79 Y130.21 E1.4553
G1 X169.79 Y150 E.72765
G1 X169.79 Y169.79 E.72765
G1 X130.21 Y169.79 E1.4553
G1 X130.21 Y130.27 E1.45309
;WIPE_START
G1 F7200
G1 X130.21 Y130.21 E-.01425
G1 X133.518 Y130.21 E-.78575
;WIPE_END
G1 X131.302 Y131.104 F9000
G1 E.8 F1800
M204 S250
;TYPE:Bridge infill
;WIDTH:0.389956
;HEIGHT:0.389872
G1 F1500
G1 X131.302 Y168.698 E1.8667
G1 X131.742 Y168.698 E.02185
G1 X131.742 Y131.302 E1.85686
G1 X132.182 Y131.302 E.02185
G1 X132.182 Y168.698 E1.85686
G1 X132.622 Y168.698 E.02185
G1 X132.622 Y131.302 E1.85686
G1 X133.062 Y131.302 E.02185
G1 X133.062 Y168.698 E1.85686
G1 X133.502 Y168.698 E.02185
G1 X133.502 Y131.302 E1.85686
G1 X133.942 Y131.302 E.02185
G1 X133.942 Y168.698 E1.85686
G1 X134.382 Y168.698 E.02185
G1 X134.382 Y131.302 E1.85686
G1 X134.822 Y131.302 E.02185
G1 X134.822 Y168.698 E1.85686
G1 X135.262 Y168.698 E.02185
G1 X135.262 Y131.302 E1.85686
G1 X135.701 Y131.302 E.0218
G1 X135.701 Y168.698 E1.85686
G1 X136.141 Y168.698 E.02185
G1 X136.141 Y131.302 E1.85686
G1 X136.581 Y131.302 E.02185
G1 X136.581 Y168.698 E1.85686
G1 X137.021 Y168.698 E.02185
G1 X137.021 Y131.302 E1.85686
G1 X137.461 Y131.302 E.02185
G1 X137.461 Y168.698 E1.85686
G1 X137.901 Y168.698 E.02185
G1 X137.901 Y131.302 E1.85686
G1 X138.341 Y131.302 E.02185
G1 X138.341 Y168.698 E1.85686
G1 X138.781 Y168.698 E.02185
G1 X138.781 Y131.302 E1.85686
G1 X139.221 Y131.302 E.02185
G1 X139.221 Y168.698 E1.85686
G1 X139.661 Y168.698 E.02185
G1 X139.661 Y131.302 E1.85686
G1 X140.101 Y131.302 E.02185
G1 X140.101 Y168.698 E1.85686
G1 X140.541 Y168.698 E.02185
G1 X140.541 Y131.302 E1.85686
G1 X140.981 Y131.302 E.02185
G1 X140.981 Y168.698 E1.85686
G1 X141.421 Y168.698 E.02185
G1 X141.421 Y131.302 E1.85686
G1 X141.861 Y131.302 E.02185
G1 X141.861 Y168.698 E1.85686
G1 X142.301 Y168.698 E.02185
G1 X142.301 Y131.302 E1.85686
G1 X142.741 Y131.302 E.02185
G1 X142.741 Y168.698 E1.85686
G1 X143.181 Y168.698 E.02185
G1 X143.181 Y131.302 E1.85686
G1 X143.621 Y131.302 E.02185
G1 X143.621 Y168.698 E1.85686
G1 X144.061 Y168.698 E.02185
G1 X144.061 Y131.302 E1.85686
G1 X144.501 Y131.302 E.02185
G1 X144.501 Y168.698 E1.85686
G1 X144.941 Y168.698 E.02185
G1 X144.941 Y131.302 E1.85686
G1 X145.381 Y131.302 E.02185
G1 X145.38 Y168.698 E1.85686
G1 X145.82 Y168.698 E.02185
G1 X145.82 Y131.302 E1.85686
G1 X146.26 Y131.302 E.02185
G1 X146.26 Y168.698 E1.85686
G1 X146.7 Y168.698 E.02185
G1 X146.7 Y131.302 E1.85686
G1 X147.14 Y131.302 E.02185
G1 X147.14 Y168.698 E1.85686
G1 X147.58 Y168.698 E.02185
G1 X147.58 Y131.302 E1.85686
G1 X148.02 Y131.302 E.02185
G1 X148.02 Y168.698 E1.85686
G1 X148.46 Y168.698 E.02185
G1 X148.46 Y131.302 E1.85686
G1 X148.9 Y131.302 E.02185
G1 X148.9 Y168.698 E1.85686
G1 X149.34 Y168.698 E.02185
G1 X149.34 Y131.302 E1.85686
G1 X149.78 Y131.302 E.02185
G1 X149.78 Y168.698 E1.85686
G1 X150.22 Y168.698 E.02185
G1 X150.22 Y131.302 E1.85686
G1 X150.66 Y131.302 E.02185
G1 X150.66 Y168.698 E1.85686
G1 X151.1 Y168.698 E.02185
G1 X151.1 Y131.302 E1.85686
G1 X151.54 Y131.302 E.02185
G1 X151.54 Y168.698 E1.85686
G1 X151.98 Y168.698 E.02185
G1 X151.98 Y131.302 E1.85686
G1 X152.42 Y131.302 E.02185
G1 X152.42 Y168.698 E1.85686
G1 X152.86 Y168.698 E.02185
G1 X152.86 Y131.302 E1.85686
G1 X153.3 Y131.302 E.02185
G1 X153.3 Y168.698 E1.85686
G1 X153.74 Y168.698 E.02185
G1 X153.74 Y131.302 E1.85686
G1 X154.18 Y131.302 E.02185
G1 X154.18 Y168.698 E1.85686
G1 X154.62 Y168.698 E.02185
G1 X154.62 Y131.302 E1.85686
G1 X155.06 Y131.302 E.02185
G1 X155.06 Y168.698 E1.85686
G1 X155.499 Y168.698 E.0218
G1 X155.499 Y131.302 E1.85686
G1 X155.939 Y131.302 E.02185
G1 X155.939 Y168.698 E1.85686
G1 X156.379 Y168.698 E.02185
G1 X156.379 Y131.302 E1.85686
G1 X156.819 Y131.302 E.02185
G1 X156.819 Y168.698 E1.85686
G1 X157.259 Y168.698 E.02185
G1 X157.259 Y131.302 E1.85686
G1 X157.699 Y131.302 E.02185
G1 X157.699 Y168.698 E1.85686
G1 X158.139 Y168.698 E.02185
G1 X158.139 Y131.302 E1.85686
G1 X158.579 Y131.302 E.02185
G1 X158.579 Y168.698 E1.85686
G1 X159.019 Y168.698 E.02185
G1 X159.019 Y131.302 E1.85686
G1 X159.459 Y131.302 E.02185
G1 X159.459 Y168.698 E1.85686
G1 X159.899 Y168.698 E.02185
G1 X159.899 Y131.302 E1.85686
G1 X160.339 Y131.302 E.02185
G1 X160.339 Y168.698 E1.85686
G1 X160.779 Y168.698 E.02185
G1 X160.779 Y131.302 E1.85686
G1 X161.219 Y131.302 E.02185
G1 X161.219 Y168.698 E1.85686
G1 X161.659 Y168.698 E.02185
G1 X161.659 Y131.302 E1.85686
G1 X162.099 Y131.302 E.02185
G1 X162.099 Y168.698 E1.85686
G1 X162.539 Y168.698 E.02185
G1 X162.539 Y131.302 E1.85686
G1 X162.979 Y131.302 E.02185
G1 X162.979 Y168.698 E1.85686
G1 X163.419 Y168.698 E.02185
G1 X163.419 Y131.302 E1.85686
G1 X163.859 Y131.302 E.02185
G1 X163.859 Y168.698 E1.85686
G1 X164.299 Y168.698 E.02185
G1 X164.299 Y131.302 E1.85686
G1 X164.739 Y131.302 E.02185
G1 X164.739 Y168.698 E1.85686
G1 X165.179 Y168.698 E.02185
G1 X165.179 Y131.302 E1.85686
G1 X165.618 Y131.302 E.0218
G1 X165.618 Y168.698 E1.85686
G1 X166.058 Y168.698 E.02185
G1 X166.058 Y131.302 E1.85686
G1 X166.498 Y131.302 E.02185
G1 X166.498 Y168.698 E1.85686
G1 X166.938 Y168.698 E.02185
G1 X166.938 Y131.302 E1.85686
G1 X167.378 Y131.302 E.02185
G1 X167.378 Y168.698 E1.85686
G1 X167.818 Y168.698 E.02185
G1 X167.818 Y131.302 E1.85686
G1 X168.258 Y131.302 E.02185
G1 X168.258 Y168.698 E1.85686
G1 X168.698 Y168.698 E.02185
G1 X168.698 Y131.104 E1.8667
M204 S500
;LAYER_CHANGE
;Z:1.88
;HEIGHT:0.24
;BEFORE_LAYER_CHANGE
G92 E0
;1.88


;WIPE_START
G1 F7200
G1 X168.698 Y134.472 E-.8
;WIPE_END
G1 Z1.88 F9000
;AFTER_LAYER_CHANGE
;1.88
G1 Z1.88
G1 X169.023 Y130.977
G1 E.8 F1800
;TYPE:Perimeter
;WIDTH:0.439999
G1 F3600
G1 X169.023 Y150 E.73741
G1 X169.023 Y169.023 E.73741
G1 X130.977 Y169.023 E1.47482
G1 X130.977 Y130.977 E1.47482
G1 X168.963 Y130.977 E1.4725
G1 X169.412 Y130.588 F9000
G1 F3600
