; generated by PrusaSlicer 2.9.2 on 2025-12-26 at 00:23:01 UTC

; 

; external perimeters extrusion width = 0.42mm
; perimeters extrusion width = 0.44mm
; infill extrusion width = 0.44mm
; solid infill extrusion width = 0.44mm
; top infill extrusion width = 0.40mm
; first layer extrusion width = 0.42mm

M201 X500 Y500 Z100 E5000 ; sets maximum accelerations, mm/sec^2
M203 X500 Y500 Z10 E60 ; sets maximum feedrates, mm / sec
M204 S500 T1000 ; sets acceleration (S) and retract acceleration (R), mm/sec^2
M205 X8.00 Y8.00 Z0.40 E5.00 ; sets the jerk limits, mm/sec
M205 S0 T0 ; sets the minimum extruding and travel feed rate, mm/sec

; printing object Shape-Box id:0 copy 0
; stop printing object Shape-Box id:0 copy 0

;TYPE:Custom
G90 ; use absolute coordinates
M83 ; extruder relative mode
M104 S150 ; set temporary nozzle temp to prevent oozing during homing
M140 S60 ; set final bed temp
G4 S30 ; allow partial nozzle warmup
G28 ; home all axis and restore leveling
G1 Z50 F240
G1 X2.0 Y10 F3000
M104 S210 ; set final nozzle temp
M190 S60 ; wait for bed temp to stabilize
M109 S210 ; wait for nozzle temp to stabilize
G1 Z0.28 F240
G92 E0
G1 X2.0 Y140 E10 F1500 ; prime the nozzle
G1 X2.3 Y140 F5000
G92 E0
G1 X2.3 Y10 E10 F1200 ; prime the nozzle
G92 E0
G21 ; set units to millimeters
G90 ; use absolute coordinates
M83 ; use relative distances for extrusion
; Filament gcode
M107
;LAYER_CHANGE
;Z:0.2
;HEIGHT:0.2
G1 E-.8 F1800
G1 Z.2 F9000
G1 X133.789 Y132.809
G1 Z.2
G1 E.8 F1800
M204 S500
;TYPE:Skirt/Brim
;WIDTH:0.42
G1 F1200
G1 X135.5 Y132.311 E.05587
G1 X164.5 Y132.311 E.90927
G1 X166.035 Y132.705 E.04969
G1 X167.191 Y133.789 E.04969
G1 X167.689 Y135.5 E.05587
G1 X167.689 Y164.5 E.90927
G1 X167.295 Y166.035 E.04969
G1 X166.211 Y167.191 E.04969
G1 X164.5 Y167.689 E.05587
G1 X135.5 Y167.689 E.90927
G1 X133.965 Y167.295 E.04969
G1 X132.809 Y166.211 E.04969
G1 X132.311 Y164.5 E.05587
G1 X132.311 Y135.5 E.90927
G1 X132.705 Y133.965 E.04969
G1 X133.748 Y132.853 E.0478
;WIPE_START
G1 F7200
G1 X133.789 Y132.809 E-.01428
G1 X135.5 Y132.311 E-.42323
G1 X137.026 Y132.311 E-.36249
;WIPE_END
; printing object Shape-Box id:0 copy 0
G1 X136.564 Y136.564 F9000
G1 E.8 F1800
;TYPE:Perimeter
;WIDTH:0.419999
G1 F1200
G1 X163.436 Y136.564 E.84255
G1 X163.436 Y150 E.42128
G1 X163.436 Y163.436 E.42128
G1 X136.564 Y163.436 E.84255
G1 X136.564 Y136.624 E.84067
G1 X136.187 Y136.187 F9000
G1 F1200
G1 X163.813 Y136.187 E.86619
G1 X163.813 Y150 E.4331
G1 X163.813 Y163.813 E.4331
G1 X136.187 Y163.813 E.86619
G1 X136.187 Y136.247 E.86431
G1 X135.81 Y135.81 F9000
;TYPE:External perimeter
G1 F1200
G1 X164.19 Y135.81 E.88983
G1 X164.19 Y150 E.44492
G1 X164.19 Y164.19 E.44492
G1 X135.81 Y164.19 E.88983
G1 X135.81 Y135.87 E.88795
;WIPE_START
G1 F7200
G1 X135.81 Y135.81 E-.01425
G1 X139.118 Y135.81 E-.78575
;WIPE_END
G1 X163.315 Y137.447 F9000
G1 E.8 F1800
;TYPE:Solid infill
;WIDTH:0.420063
G1 F1200
G1 X162.722 Y136.855 E.02628
G1 X162.189 Y136.855 E.01671
G1 X163.145 Y137.811 E.0424
G1 X163.145 Y138.344 E.01671
G1 X161.656 Y136.855 E.06604
G1 X161.122 Y136.855 E.01675
G1 X163.145 Y138.878 E.08972
G1 X163.145 Y139.411 E.01671
G1 X160.589 Y136.855 E.11336
G1 X160.056 Y136.855 E.01671
G1 X163.145 Y139.944 E.13699
G1 X163.145 Y140.478 E.01675
G1 X159.522 Y136.855 E.16068
G1 X158.989 Y136.855 E.01671
G1 X163.145 Y141.011 E.18431
G1 X163.145 Y141.544 E.01671
G1 X158.456 Y136.855 E.20795
G1 X157.922 Y136.855 E.01675
G1 X163.145 Y142.078 E.23164
G1 X163.145 Y142.611 E.01671
G1 X157.389 Y136.855 E.25527
G1 X156.855 Y136.855 E.01675
G1 X163.145 Y143.145 E.27896
G1 X163.145 Y143.678 E.01671
G1 X156.322 Y136.855 E.30259
G1 X155.789 Y136.855 E.01671
G1 X163.145 Y144.211 E.32623
G1 X163.145 Y144.745 E.01675
G1 X155.255 Y136.855 E.34991
G1 X154.722 Y136.855 E.01671
G1 X163.145 Y145.278 E.37355
G1 X163.145 Y145.811 E.01671
G1 X154.189 Y136.855 E.39719
G1 X153.655 Y136.855 E.01675
G1 X163.145 Y146.345 E.42087
G1 X163.145 Y146.878 E.01671
G1 X153.122 Y136.855 E.44451
G1 X152.589 Y136.855 E.01671
G1 X163.145 Y147.411 E.46815
G1 X163.145 Y147.945 E.01675
G1 X152.055 Y136.855 E.49183
G1 X151.522 Y136.855 E.01671
G1 X163.145 Y148.478 E.51547
G1 X163.145 Y149.011 E.01671
G1 X150.989 Y136.855 E.53911
G1 X150.455 Y136.855 E.01675
G1 X163.145 Y149.545 E.56279
G1 X163.145 Y150.078 E.01671
G1 X149.922 Y136.855 E.58643
G1 X149.388 Y136.855 E.01675
G1 X163.145 Y150.612 E.61011
G1 X163.145 Y151.145 E.01671
G1 X148.855 Y136.855 E.63375
G1 X148.322 Y136.855 E.01671
G1 X163.145 Y151.678 E.65739
G1 X163.145 Y152.212 E.01675
G1 X147.788 Y136.855 E.68107
G1 X147.255 Y136.855 E.01671
G1 X163.145 Y152.745 E.70471
G1 X163.145 Y153.278 E.01671
G1 X146.722 Y136.855 E.72835
G1 X146.188 Y136.855 E.01675
G1 X163.145 Y153.812 E.75203
G1 X163.145 Y154.345 E.01671
G1 X145.655 Y136.855 E.77567
G1 X145.122 Y136.855 E.01671
G1 X163.145 Y154.878 E.7993
G1 X163.145 Y155.412 E.01675
G1 X144.588 Y136.855 E.82299
G1 X144.055 Y136.855 E.01671
G1 X163.145 Y155.945 E.84662
G1 X163.145 Y156.479 E.01675
G1 X143.521 Y136.855 E.87031
G1 X142.988 Y136.855 E.01671
G1 X163.145 Y157.012 E.89395
G1 X163.145 Y157.545 E.01671
G1 X142.455 Y136.855 E.91758
G1 X141.921 Y136.855 E.01675
G1 X163.145 Y158.079 E.94127
G1 X163.145 Y158.612 E.01671
G1 X141.388 Y136.855 E.9649
G1 X140.855 Y136.855 E.01671
G1 X163.145 Y159.145 E.98854
G1 X163.145 Y159.679 E.01675
G1 X140.321 Y136.855 E1.01222
G1 X139.788 Y136.855 E.01671
G1 X163.145 Y160.212 E1.03586
G1 X163.145 Y160.745 E.01671
G1 X139.255 Y136.855 E1.0595
G1 X138.721 Y136.855 E.01675
G1 X163.145 Y161.279 E1.08318
G1 X163.145 Y161.812 E.01671
G1 X138.188 Y136.855 E1.10682
G1 X137.655 Y136.855 E.01671
G1 X163.145 Y162.345 E1.13046
G1 X163.145 Y162.879 E.01675
G1 X137.121 Y136.855 E1.15414
G1 X136.855 Y136.855 E.00834
G1 X136.855 Y137.121 E.00834
G1 X162.879 Y163.145 E1.15414
G1 X162.345 Y163.145 E.01675
G1 X136.855 Y137.655 E1.13046
G1 X136.855 Y138.188 E.01671
G1 X161.812 Y163.145 E1.10682
G1 X161.279 Y163.145 E.01671
G1 X136.855 Y138.721 E1.08318
G1 X136.855 Y139.255 E.01675
G1 X160.745 Y163.145 E1.0595
G1 X160.212 Y163.145 E.01671
G1 X136.855 Y139.788 E1.03586
G1 X136.855 Y140.321 E.01671
G1 X159.679 Y163.145 E1.01222
G1 X159.145 Y163.145 E.01675
G1 X136.855 Y140.855 E.98854
G1 X136.855 Y141.388 E.01671
G1 X158.612 Y163.145 E.9649
G1 X158.079 Y163.145 E.01671
G1 X136.855 Y141.921 E.94127
G1 X136.855 Y142.455 E.01675
G1 X157.545 Y163.145 E.91758
G1 X157.012 Y163.145 E.01671
G1 X136.855 Y142.988 E.89395
G1 X136.855 Y143.522 E.01675
G1 X156.478 Y163.145 E.87026
G1 X155.945 Y163.145 E.01671
G1 X136.855 Y144.055 E.84662
G1 X136.855 Y144.588 E.01671
G1 X155.412 Y163.145 E.82299
G1 X154.878 Y163.145 E.01675
G1 X136.855 Y145.122 E.7993
G1 X136.855 Y145.655 E.01671
G1 X154.345 Y163.145 E.77567
G1 X153.812 Y163.145 E.01671
G1 X136.855 Y146.188 E.75203
G1 X136.855 Y146.722 E.01675
G1 X153.278 Y163.145 E.72835
G1 X152.745 Y163.145 E.01671
G1 X136.855 Y147.255 E.70471
G1 X136.855 Y147.788 E.01671
G1 X152.212 Y163.145 E.68107
G1 X151.678 Y163.145 E.01675
G1 X136.855 Y148.322 E.65739
G1 X136.855 Y148.855 E.01671
G1 X151.145 Y163.145 E.63375
G1 X150.611 Y163.145 E.01675
G1 X136.855 Y149.389 E.61007
G1 X136.855 Y149.922 E.01671
G1 X150.078 Y163.145 E.58643
G1 X149.545 Y163.145 E.01671
G1 X136.855 Y150.455 E.56279
G1 X136.855 Y150.989 E.01675
G1 X149.011 Y163.145 E.53911
G1 X148.478 Y163.145 E.01671
G1 X136.855 Y151.522 E.51547
G1 X136.855 Y152.055 E.01671
G1 X147.945 Y163.145 E.49183
G1 X147.411 Y163.145 E.01675
G1 X136.855 Y152.589 E.46815
G1 X136.855 Y153.122 E.01671
G1 X146.878 Y163.145 E.44451
G1 X146.345 Y163.145 E.01671
G1 X136.855 Y153.655 E.42087
G1 X136.855 Y154.189 E.01675
G1 X145.811 Y163.145 E.39719
G1 X145.278 Y163.145 E.01671
G1 X136.855 Y154.722 E.37355
G1 X136.855 Y155.255 E.01671
G1 X144.745 Y163.145 E.34991
G1 X144.211 Y163.145 E.01675
G1 X136.855 Y155.789 E.32623
G1 X136.855 Y156.322 E.01671
G1 X143.678 Y163.145 E.30259
G1 X143.144 Y163.145 E.01675
G1 X136.855 Y156.856 E.27891
G1 X136.855 Y157.389 E.01671
G1 X142.611 Y163.145 E.25527
G1 X142.078 Y163.145 E.01671
G1 X136.855 Y157.922 E.23164
G1 X136.855 Y158.456 E.01675
G1 X141.544 Y163.145 E.20795
G1 X141.011 Y163.145 E.01671
G1 X136.855 Y158.989 E.18431
G1 X136.855 Y159.522 E.01671
G1 X140.478 Y163.145 E.16068
G1 X139.944 Y163.145 E.01675
G1 X136.855 Y160.056 E.13699
G1 X136.855 Y160.589 E.01671
G1 X139.411 Y163.145 E.11336
G1 X138.878 Y163.145 E.01671
G1 X136.855 Y161.122 E.08972
G1 X136.855 Y161.656 E.01675
G1 X138.344 Y163.145 E.06604
G1 X137.811 Y163.145 E.01671
G1 X136.855 Y162.189 E.0424
G1 X136.855 Y162.723 E.01675
G1 X137.447 Y163.315 E.02625
M106 S255
;LAYER_CHANGE
;Z:0.44
;HEIGHT:0.24
;BEFORE_LAYER_CHANGE
G92 E0
;0.44


;WIPE_START
G1 F7200
G1 X136.855 Y162.723 E-.19884
G1 X136.855 Y162.189 E-.12683
G1 X137.811 Y163.145 E-.3211
G1 X138.344 Y163.145 E-.12659
G1 X138.265 Y163.066 E-.02664
;WIPE_END
G1 Z.44 F9000
;AFTER_LAYER_CHANGE
;0.44
M104 S205 ; set temperature
; stop printing object Shape-Box id:0 copy 0
G1 Z.44
G1 X137.447 Y167.689
G1 E.8 F1800
;TYPE:Skirt/Brim
;WIDTH:0.42
G1 F2400
G1 X135.5 Y167.689 E.07159
G1 X133.965 Y167.295 E.05827
G1 X132.809 Y166.211 E.05827
G1 X132.311 Y164.5 E.06552
G1 X132.311 Y135.5 E1.06629
G1 X132.705 Y133.965 E.05827
G1 X133.789 Y132.809 E.05827
G1 X135.5 Y132.311 E.06552
G1 X164.5 Y132.311 E1.06629
G1 X166.035 Y132.705 E.05827
G1 X167.191 Y133.789 E.05827
G1 X167.689 Y135.5 E.06552
G1 X167.689 Y164.5 E1.06629
G1 X167.295 Y166.035 E.05827
G1 X166.211 Y167.191 E.05827
G1 X164.5 Y167.689 E.06552
G1 X137.507 Y167.689 E.9925
;WIPE_START
G1 F7200
G1 X137.447 Y167.689 E-.01425
G1 X135.5 Y167.689 E-.46241
G1 X134.181 Y167.35 E-.32334
;WIPE_END
; printing object Shape-Box id:0 copy 0
G1 X136.477 Y163.523 F9000
G1 E.8 F1800
;TYPE:Perimeter
;WIDTH:0.439999
G1 F3600
G1 X136.477 Y136.477 E1.04842
G1 X163.523 Y136.477 E1.04842
G1 X163.523 Y150 E.52421
G1 X163.523 Y163.523 E.52421
G1 X136.537 Y163.523 E1.04609
G1 X136.088 Y163.912 F9000
G1 F3600
G1 X136.088 Y136.088 E1.07857
G1 X163.912 Y136.088 E1.07857
G1 X163.912 Y150 E.53929
G1 X163.912 Y163.912 E.53929
G1 X136.148 Y163.912 E1.07625
G1 X135.71 Y164.29 F9000
;TYPE:External perimeter
;WIDTH:0.419999
G1 F1800
G1 X135.71 Y135.71 E1.05085
G1 X164.29 Y135.71 E1.05085
G1 X164.29 Y150 E.52542
G1 X164.29 Y164.29 E.52542
G1 X135.77 Y164.29 E1.04864
;WIPE_START
G1 F7200
G1 X135.71 Y164.29 E-.01425
G1 X135.71 Y160.982 E-.78575
;WIPE_END
G1 X136.882 Y136.808 F9000
G1 E.8 F1800
;TYPE:Solid infill
;WIDTH:0.534256
G1 F3600
G1 X136.839 Y136.765 E.00293
G1 X136.781 Y136.781 E.0029
G1 X136.765 Y136.839 E.0029
G1 X136.808 Y136.882 E.00293
G1 X136.866 Y136.866 E.0029
;WIDTH:0.439999
G1 X136.776 Y137.486 E.02429
G1 X137.486 Y136.776 E.03892
G1 X137.666 Y136.64 E.00875
;WIDTH:0.391504
G1 X137.625 Y136.651 E.00144
G1 X137.606 Y136.58 E.00249
G1 X137.677 Y136.599 E.00249
;WIDTH:0.439999
G1 X138.036 Y136.776 E.01552
G1 X136.776 Y138.036 E.06907
G1 X136.776 Y138.585 E.02128
G1 X138.585 Y136.776 E.09917
G1 X139.135 Y136.776 E.02132
G1 X136.776 Y139.135 E.12932
G1 X136.776 Y139.684 E.02128
G1 X139.684 Y136.776 E.15942
G1 X140.234 Y136.776 E.02132
G1 X136.776 Y140.234 E.18957
G1 X136.776 Y140.783 E.02128
G1 X140.783 Y136.776 E.21967
G1 X141.332 Y136.776 E.02128
G1 X136.776 Y141.332 E.24976
G1 X136.776 Y141.882 E.02132
G1 X141.882 Y136.776 E.27992
G1 X142.431 Y136.776 E.02128
G1 X136.776 Y142.431 E.31001
G1 X136.776 Y142.981 E.02132
G1 X142.981 Y136.776 E.34016
G1 X143.53 Y136.776 E.02128
G1 X136.776 Y143.53 E.37026
G1 X136.776 Y144.079 E.02128
G1 X144.079 Y136.776 E.40036
G1 X144.629 Y136.776 E.02132
G1 X136.776 Y144.629 E.43051
G1 X136.776 Y145.178 E.02128
G1 X145.178 Y136.776 E.4606
G1 X145.728 Y136.776 E.02132
G1 X136.776 Y145.728 E.49076
G1 X136.776 Y146.277 E.02128
G1 X146.277 Y136.776 E.52085
G1 X146.827 Y136.776 E.02132
G1 X136.776 Y146.827 E.551
G1 X136.776 Y147.376 E.02128
G1 X147.376 Y136.776 E.5811
G1 X147.925 Y136.776 E.02128
G1 X136.776 Y147.925 E.6112
G1 X136.776 Y148.475 E.02132
G1 X148.475 Y136.776 E.64135
G1 X149.024 Y136.776 E.02128
G1 X136.776 Y149.024 E.67145
G1 X136.776 Y149.574 E.02132
G1 X149.574 Y136.776 E.7016
G1 X150.123 Y136.776 E.02128
G1 X136.776 Y150.123 E.73169
G1 X136.776 Y150.672 E.02128
G1 X150.672 Y136.776 E.76179
G1 X151.222 Y136.776 E.02132
G1 X136.776 Y151.222 E.79194
G1 X136.776 Y151.771 E.02128
G1 X151.771 Y136.776 E.82204
G1 X152.321 Y136.776 E.02132
G1 X136.776 Y152.321 E.85219
G1 X136.776 Y152.87 E.02128
G1 X152.87 Y136.776 E.88229
G1 X153.42 Y136.776 E.02132
G1 X136.776 Y153.419 E.91241
G1 X136.776 Y153.969 E.02132
G1 X153.969 Y136.776 E.94253
G1 X154.518 Y136.776 E.02128
G1 X136.776 Y154.518 E.97263
G1 X136.776 Y155.068 E.02132
G1 X155.068 Y136.776 E1.00278
G1 X155.617 Y136.776 E.02128
G1 X136.776 Y155.617 E1.03288
G1 X136.776 Y156.167 E.02132
G1 X156.167 Y136.776 E1.06303
G1 X156.716 Y136.776 E.02128
G1 X136.776 Y156.716 E1.09313
G1 X136.776 Y157.265 E.02128
G1 X157.265 Y136.776 E1.12322
G1 X157.815 Y136.776 E.02132
G1 X136.776 Y157.815 E1.15338
G1 X136.776 Y158.364 E.02128
G1 X158.364 Y136.776 E1.18347
G1 X158.914 Y136.776 E.02132
G1 X136.776 Y158.914 E1.21362
G1 X136.776 Y159.463 E.02128
G1 X159.463 Y136.776 E1.24372
G1 X160.012 Y136.776 E.02128
G1 X136.776 Y160.012 E1.27382
G1 X136.776 Y160.562 E.02132
G1 X160.562 Y136.776 E1.30397
G1 X161.111 Y136.776 E.02128
G1 X136.776 Y161.111 E1.33407
G1 X136.776 Y161.661 E.02132
G1 X161.661 Y136.776 E1.36422
G1 X162.21 Y136.776 E.02128
G1 X136.776 Y162.21 E1.39431
G1 X136.776 Y162.76 E.02132
G1 X162.76 Y136.776 E1.42446
G1 X163.39 Y136.64 E.02498
;WIDTH:0.391504
G1 X163.319 Y136.621 E.00249
G1 X163.338 Y136.692 E.00249
G1 X163.379 Y136.681 E.00144
;WIDTH:0.439999
G1 X163.224 Y136.861 E.00921
G1 X136.861 Y163.224 E1.44524
G1 X136.681 Y163.379 E.00921
;WIDTH:0.391504
G1 X136.64 Y163.39 E.00144
G1 X136.621 Y163.319 E.00249
G1 X136.692 Y163.338 E.00249
;WIDTH:0.439999
G1 X137.411 Y163.224 E.02822
G1 X163.224 Y137.411 E1.41509
G1 X163.224 Y137.96 E.02128
G1 X137.96 Y163.224 E1.38499
G1 X138.509 Y163.224 E.02128
G1 X163.224 Y138.509 E1.3549
G1 X163.224 Y139.059 E.02132
G1 X139.059 Y163.224 E1.32475
G1 X139.608 Y163.224 E.02128
G1 X163.224 Y139.608 E1.29465
G1 X163.224 Y140.158 E.02132
G1 X140.158 Y163.224 E1.2645
G1 X140.707 Y163.224 E.02128
G1 X163.224 Y140.707 E1.2344
G1 X163.224 Y141.257 E.02132
G1 X141.257 Y163.224 E1.20425
G1 X141.806 Y163.224 E.02128
G1 X163.224 Y141.806 E1.17415
G1 X163.224 Y142.355 E.02128
G1 X142.355 Y163.224 E1.14406
G1 X142.905 Y163.224 E.02132
G1 X163.224 Y142.905 E1.1139
G1 X163.224 Y143.454 E.02128
G1 X143.454 Y163.224 E1.08381
G1 X144.004 Y163.224 E.02132
G1 X163.224 Y144.004 E1.05366
G1 X163.224 Y144.553 E.02128
G1 X144.553 Y163.224 E1.02356
G1 X145.102 Y163.224 E.02128
G1 X163.224 Y145.102 E.99346
G1 X163.224 Y145.652 E.02132
G1 X145.652 Y163.224 E.96331
G1 X146.201 Y163.224 E.02128
G1 X163.224 Y146.201 E.93322
G1 X163.224 Y146.751 E.02132
G1 X146.751 Y163.224 E.90306
G1 X147.3 Y163.224 E.02128
G1 X163.224 Y147.3 E.87297
G1 X163.224 Y147.85 E.02132
G1 X147.85 Y163.224 E.84282
G1 X148.399 Y163.224 E.02128
G1 X163.224 Y148.399 E.81272
G1 X163.224 Y148.948 E.02128
G1 X148.948 Y163.224 E.78262
G1 X149.498 Y163.224 E.02132
G1 X163.224 Y149.498 E.75247
G1 X163.224 Y150.047 E.02128
G1 X150.047 Y163.224 E.72237
G1 X150.597 Y163.224 E.02132
G1 X163.224 Y150.597 E.69222
G1 X163.224 Y151.146 E.02128
G1 X151.146 Y163.224 E.66213
G1 X151.695 Y163.224 E.02128
G1 X163.224 Y151.695 E.63203
G1 X163.224 Y152.245 E.02132
G1 X152.245 Y163.224 E.60188
G1 X152.794 Y163.224 E.02128
G1 X163.224 Y152.794 E.57178
G1 X163.224 Y153.344 E.02132
G1 X153.344 Y163.224 E.54163
G1 X153.893 Y163.224 E.02128
G1 X163.224 Y153.893 E.51153
G1 X163.224 Y154.443 E.02132
G1 X154.443 Y163.224 E.48138
G1 X154.992 Y163.224 E.02128
G1 X163.224 Y154.992 E.45129
G1 X163.224 Y155.541 E.02128
G1 X155.541 Y163.224 E.42119
G1 X156.091 Y163.224 E.02132
G1 X163.224 Y156.091 E.39104
G1 X163.224 Y156.64 E.02128
G1 X156.64 Y163.224 E.36094
G1 X157.19 Y163.224 E.02132
G1 X163.224 Y157.19 E.33079
